icon-themes/breeze_svg/cmd/32/datasort.svg

<svg xmlns="http://www.w3.org/2000/svg" viewBox="0 0 32 32">
 <path 
     style="fill:#4d4d4d" 
     d="M 21 6 L 20 7 L 16 11 L 16.707031 11.707031 L 20.5 7.9140625 L 20.5 22 L 21.5 22 L 21.5 7.9140625 L 25.292969 11.707031 L 26 11 L 22 7 L 21 6 z M 10.5 10 L 10.5 24.085938 L 6.7070312 20.292969 L 6 21 L 10 25 L 11 26 L 12 25 L 16 21 L 15.292969 20.292969 L 11.5 24.085938 L 11.5 10 L 10.5 10 z "
     />
</svg>

<svg xmlns="http://www.w3.org/2000/svg" width="32" height="32" viewBox="0 0 32 32"><g color="#000" font-family="sans-serif" white-space="normal" fill="#4d4d4d" fill-rule="evenodd"><path style="line-height:normal;text-indent:0;text-align:start;text-decoration-line:none;text-decoration-style:solid;text-decoration-color:#000000;text-transform:none;block-progression:tb;isolation:auto;mix-blend-mode:normal" d="M21 6l-1 1-4 4 .707.707L20.5 7.914V22h1V7.914l3.793 3.793L26 11l-4-4-1-1zM10.5 10v14.086l-3.793-3.793L6 21l4 4 1 1 1-1 4-4-.707-.707-3.793 3.793V10h-1z" overflow="visible" solid-color="#000000"/></g></svg>
